fs/database_link_24_filled.svg

<svg viewBox="0 0 24 24" fill="none" xmlns="http://www.w3.org/2000/svg" height="1em" width="1em">
  <path d="M12 10C16.4183 10 20 8.20914 20 6C20 3.79086 16.4183 2 12 2C7.58172 2 4 3.79086 4 6C4 8.20914 7.58172 10 12 10ZM18.3277 10.1701C18.9156 9.87611 19.4979 9.50399 20 9.05337V15.0589C19.7557 15.0201 19.5052 15 19.25 15H15.75C13.1266 15 11 17.1266 11 19.75C11 20.5617 11.2036 21.3258 11.5625 21.9941C7.34768 21.8805 4 20.1357 4 18V9.05337C4.50211 9.50399 5.08441 9.87611 5.67233 10.1701C7.36922 11.0185 9.60849 11.5 12 11.5C14.3915 11.5 16.6308 11.0185 18.3277 10.1701ZM23 19.75C23 17.6789 21.3211 16 19.25 16L19.1482 16.0068C18.7822 16.0565 18.5 16.3703 18.5 16.75C18.5 17.1642 18.8358 17.5 19.25 17.5L19.404 17.5052C20.5748 17.5844 21.5 18.5591 21.5 19.75C21.5 20.9926 20.4926 22 19.25 22L19.2466 22.0046L19.1448 22.0119C18.779 22.0633 18.4983 22.3783 18.5 22.758C18.5019 23.1722 18.8392 23.5065 19.2534 23.5046V23.5L19.4523 23.4948C21.4276 23.3913 23 21.7543 23 19.75ZM16.5 16.75C16.5 16.3358 16.1642 16 15.75 16L15.5508 16.0052C13.5724 16.1087 12 17.7457 12 19.75C12 21.8211 13.6789 23.5 15.75 23.5L15.8518 23.4932C16.2178 23.4435 16.5 23.1297 16.5 22.75C16.5 22.3358 16.1642 22 15.75 22L15.596 21.9948C14.4252 21.9156 13.5 20.9409 13.5 19.75C13.5 18.5074 14.5074 17.5 15.75 17.5L15.8518 17.4932C16.2178 17.4435 16.5 17.1297 16.5 16.75ZM20 19.75C20 19.3358 19.6642 19 19.25 19H15.75L15.6482 19.0068C15.2822 19.0565 15 19.3703 15 19.75C15 20.1642 15.3358 20.5 15.75 20.5H19.25L19.3518 20.4932C19.7178 20.4435 20 20.1297 20 19.75Z" fill="#212121"/>
</svg>

<svg viewBox="0 0 24 24" fill="none" xmlns="http://www.w3.org/2000/svg" height="1em" width="1em">
  <path d="M12 10c4.418 0 8-1.79 8-4s-3.582-4-8-4-8 1.79-8 4 3.582 4 8 4Zm6.328.17A7.61 7.61 0 0 0 20 9.053v6.006a4.78 4.78 0 0 0-.75-.059h-3.5a4.75 4.75 0 0 0-4.188 6.994C7.348 21.881 4 20.136 4 18V9.053a7.61 7.61 0 0 0 1.672 1.117C7.37 11.018 9.608 11.5 12 11.5c2.392 0 4.63-.482 6.328-1.33ZM23 19.75A3.75 3.75 0 0 0 19.25 16l-.102.007a.75.75 0 0 0 .102 1.493l.154.005A2.25 2.25 0 0 1 19.25 22l-.003.005-.102.007a.75.75 0 0 0 .108 1.493V23.5l.2-.005A3.75 3.75 0 0 0 23 19.75Zm-6.5-3a.75.75 0 0 0-.75-.75l-.2.005a3.75 3.75 0 0 0 .2 7.495l.102-.007A.75.75 0 0 0 15.75 22l-.154-.005a2.25 2.25 0 0 1 .154-4.495l.102-.007a.75.75 0 0 0 .648-.743Zm3.5 3a.75.75 0 0 0-.75-.75h-3.5l-.102.007a.75.75 0 0 0 .102 1.493h3.5l.102-.007A.75.75 0 0 0 20 19.75Z" fill="#212121"/>
</svg>
